X:1
T:Title
%%score { ( 1 3 ) | 2 }
L:1/8
M:4/4
K:Ab
V:1 treble nm="Grand Piano"
V:3 treble 
V:2 bass 
V:1
 z4 z2[Q:1/4=100] [A,C][B,D] | [CE]2 [CE]2 [DE]2 [DF][DG] | [CA]2 [DA]2 [CA]2 [EA][EA] | %3
 B2 B2 G2 FG |[M:9/8] [CA]2 [DF]- [DF] [CE]2- [CE]AB |[M:4/4] c2 c2 A2 [FA][FA] | %6
[M:3/4] [FB]2 [FB]2 [DF]2 |[M:1/4] [EF][EF] |[M:4/4] [=DB]3 [Dc] [DB][DA][DG][DF] | %9
[M:7/8] E2 F2 G3 |[M:1/4] [Ge]d |[M:4/4] c3 A [FB][FA][EG][DF] | [CE]2 [Ec]2 [Ec]2 dc | %13
 c3 B B=ABc |[M:3/4] [DB]2 [CA]2 [CA]2 |[M:1/4] [CE][CE] |[M:4/4] [DF]3 [EG] [FA][=EG][FA][FB] | %17
[M:9/8] [Ec]2 [_Ge]- [Ge] [Fd]2- [Fd]cB |[M:4/4] A2 c2 z4 |[M:3/4] [CEA]6 |] %20
V:2
 z4 z2 [A,,E,][A,,E,] | [A,,A,]2 [A,,A,]2 [B,,G,]2 [E,B,][E,B,] | %2
 [A,,A,]2 [A,,F,]2 [A,,E,]2 [C,A,][C,A,] | [E,G,E]2 [E,G,E]2 [E,B,D]2 [E,B,D][E,B,D] | %4
[M:9/8] [A,,A,]2 [A,,A,]- [A,,A,] [A,,A,]2- [A,,A,][A,C][A,D] | %5
[M:4/4] [A,E]2 [G,C=E]2 [F,CF]2 [E,C][E,C] |[M:3/4] [D,D]2 [D,D]2 [D,A,]2 |[M:1/4] [C,=A,][C,A,] | %8
[M:4/4] [B,,B,]3 [B,,A,] [B,,G,][B,,F,][B,,B,][B,,A,] |[M:7/8] [E,G,]2 [E,A,=D]2 [E,B,_D]3 | %10
[M:1/4] [E,B,][E,G,E] |[M:4/4] [A,E]3 [A,CE] [D,D][D,D][D,A,][D,A,] | %12
 [A,,A,]2 [A,,A,]2 [A,,A,]2[K:treble] [A,F][A,E] | %13
 [E,A,E]3 [E,G,D] [E,G,D][E,_G,C][E,=G,D][E,G,E] |[M:3/4] [A,,A,]2 [A,,A,]2 [A,,A,]2 | %15
[M:1/4] [A,,A,][A,,A,] |[M:4/4] [D,A,]3 [D,A,] [D,D][D,D][D,D][D,A,] | %17
[M:9/8] [A,,A,]2 [C,A,]- [C,A,] [D,A,]2- [D,A,] z z |[M:4/4] [E,A,C][E,C]E,E, E,3 D, | %19
[M:3/4] A,,6 |] %20
V:3
 x8 | x8 | x8 | x8 |[M:9/8] x9 |[M:4/4] x8 |[M:3/4] x6 |[M:1/4] x2 |[M:4/4] x8 |[M:7/8] x7 | %10
[M:1/4] x2 |[M:4/4] x8 | x8 | x8 |[M:3/4] x6 |[M:1/4] x2 |[M:4/4] x8 |[M:9/8] x9 | %18
[M:4/4] z E[EA][CE] [EGc]3 [DEB] |[M:3/4] x6 |] %20

